online-zoo/images/aside-animals-bg.svg

<svg width="111" height="380" viewBox="0 0 111 380" fill="none" xmlns="http://www.w3.org/2000/svg">
<path d="M77.6453 197.565C77.3592 197.094 77.2399 196.918 77.1446 196.741C76.9538 196.898 76.6437 197.016 76.5722 197.212C76.5245 197.349 76.7391 197.546 76.8584 197.722C77.1922 197.644 77.5023 197.585 77.6453 197.565Z" fill="#FFE68E"/>
<path fill-rule="evenodd" clip-rule="evenodd" d="M0 6.14114C-0.310019 5.45447 -0.312601 4.61084 0.903629 4.43427C2.42988 4.19882 2.71605 3.25711 3.76535 2.78625C4.60001 2.41348 5.29159 2.3154 5.64931 3.25711C5.81624 3.70834 6.34089 4.12039 6.53167 4.57162C6.81784 5.27792 7.10402 4.88553 7.65251 4.80704C8.82105 4.63046 10.085 5.19943 10.2281 5.92535C10.3473 6.51392 10.1327 7.10251 10.2996 7.69107C10.3711 7.94611 10.9435 8.29929 11.3727 8.41699C12.6128 8.77014 13.2329 8.20114 13.9006 7.73029C13.6383 7.61258 13.4236 7.47525 13.1375 7.41638C12.6367 7.29868 11.8497 7.33792 12.5174 6.76895C12.9228 6.43542 13.1852 6.04306 13.519 5.67029C13.9721 6.08228 14.5683 6.45508 14.8545 6.90631C15.6653 8.26004 15.6176 8.24039 18.4555 8.43658C19.2425 8.49545 20.1725 9.67258 20.7449 8.24039C20.9833 7.6322 23.6066 8.31891 25.0374 9.14291C26.0152 9.69226 27.2553 10.1239 28.4477 10.3985C29.6162 10.6536 30.904 10.6535 32.1202 10.732L32.227 10.7395C33.0299 10.7959 33.5836 10.8348 32.6925 10.0453C31.6909 9.1821 31.7625 7.9657 29.807 7.33789C28.5907 6.96512 28.3523 6.08228 28.9246 5.29752C29.6877 4.27731 30.6178 3.29639 30.5462 2.02115C30.5224 1.76611 30.5463 1.88379 31.5479 2.11923C32.2156 2.27618 33.1218 2.1781 33.718 1.96228C34.2188 1.78571 34.4096 1.29526 34.7434 0.922485C34.8865 1.39334 34.8388 1.923 35.1965 2.3154C35.7212 2.86475 36.4128 3.84567 37.5575 3.35519C39.1553 2.6489 39.7038 3.86533 39.6561 4.08115C39.3937 5.43488 41.0631 6.1019 42.2078 6.88666C44.0917 8.20114 46.238 7.88724 47.1442 6.27847C47.335 5.94495 47.5735 5.63101 47.9073 5.37598C48.0743 5.23865 48.6943 5.17981 48.8374 5.2583C49.6482 5.7684 50.3636 6.35693 51.1506 6.88666C51.5322 7.14169 52.0091 7.3183 52.4384 7.53412C52.82 7.18097 53.5831 6.8082 53.5115 6.45505C53.2492 5.23865 54.2747 4.31656 54.4893 3.23752C54.6801 2.35464 55.324 2.45276 56.2779 2.94324C56.8741 3.23752 57.5179 3.49252 58.1857 3.72797C58.4718 3.82605 58.9965 3.8653 59.1396 3.76721C60.5943 2.78625 61.1428 3.00211 60.9997 4.41467C60.9759 4.552 61.5959 4.8855 61.9059 4.90512C62.5021 4.94437 63.2414 4.63046 63.6229 4.78741C65.1253 5.41522 64.3384 4.43427 64.6722 4.29694C65.0538 4.13998 65.8885 4.08115 66.1746 4.25772C68.2494 5.49371 68.3209 4.63049 68.3448 3.59067C68.3448 3.43372 68.6071 3.29639 68.774 3.15906C68.941 3.41409 69.0841 3.66913 69.251 3.92416C69.6802 4.57159 70.3957 4.65012 70.968 4.25772C71.9935 3.55142 72.9235 2.78629 73.8297 2.02115C74.0682 1.82495 73.9728 1.43256 74.259 1.29523C75.3798 0.785126 76.5245 -0.0192566 77.7884 0.000366211C79.0762 0.019989 79.7201 1.19708 80.507 2.04071C81.4371 3.06091 82.4864 4.17923 84.2273 4.88553C85.2289 5.29752 85.2527 5.88608 84.2988 6.29807C83.4165 6.67084 82.8203 7.00436 84.108 7.7695C84.8712 8.22073 85.2766 8.90744 85.8489 9.496C84.3942 9.90799 85.8251 10.5555 85.8489 11.0852C85.8489 11.3795 85.7297 11.8699 85.9205 11.9288C86.5643 12.1642 87.3275 12.3408 88.0191 12.3604C88.2337 12.3604 88.6391 11.7522 88.496 11.5168C87.2798 9.53525 86.7551 7.71066 88.5676 5.94495C89.3068 5.21902 89.9269 5.29752 90.4754 5.86649C91.477 6.88669 93.1701 7.90686 91.8824 9.22134C91.7393 9.3783 92.2878 9.80994 92.2401 10.065C92.0493 10.8694 92.9555 11.5364 93.194 12.2623C93.6948 13.773 92.3832 15.2836 94.1002 16.7943C93.1463 17.069 93.1702 17.6576 93.2417 18.2658C93.3609 19.5214 92.0255 20.7966 94.0525 22.0915C94.1956 22.1896 93.2894 22.7979 93.3132 23.2098C93.3371 23.6218 94.1479 24.1123 94.1241 24.5047C93.9333 27.0748 94.0048 27.5064 95.6265 30.2531C95.8888 30.7043 95.9603 31.1948 96.008 31.6656L96.0122 31.727C96.0568 32.3864 96.0928 32.9185 97.2958 32.1954C97.3196 32.1758 97.8443 32.4308 97.8204 32.5092C97.5104 34.0396 98.6074 35.5895 98.6551 37.0609C98.7266 38.9247 98.3213 40.8278 97.5104 42.5543C97.1766 43.2802 97.2481 43.5548 97.7012 44.2611C98.4166 45.399 96.8427 46.2623 96.5804 47.3413C96.1511 47.1844 95.6026 46.8509 95.2926 46.9098C92.6693 47.4395 93.5756 49.3425 92.6217 50.5197C93.814 51.3437 93.194 52.2265 93.2178 53.0701C93.2655 55.1694 93.194 57.2098 94.8395 59.2894C95.4118 60.0349 95.1257 61.0355 95.1018 61.8988C95.0064 64.2727 93.2894 67.5169 94.8395 69.7534C97.0335 72.8925 98.822 75.3182 100.539 78.4573C101.183 79.6345 101.016 81.0863 100.539 82.2634C100.11 83.3229 102.113 84.4412 100.682 85.3436C102.447 86.5404 101.326 87.7961 101.517 89.032C101.588 89.5421 100.897 90.013 100.873 90.5427L100.868 90.5948C100.797 91.3078 97.0523 95.1488 97.5412 95.7808C98.5428 97.0757 100.73 95.9887 100.539 97.3425C100.444 98.0095 102.471 97.9195 103.377 98.5669C104.402 99.3124 101.326 99.4302 102.852 100.529C103.759 101.196 102.542 101.804 102.375 102.412C102.161 103.119 104.235 103.727 102.662 104.413C102.208 104.61 102.351 105.846 102.876 106.317C103.925 107.258 103.615 108.161 103.329 108.867C103.043 109.573 103.043 110.064 103.401 110.79C103.711 111.437 103.472 112.163 103.472 112.85C103.472 113.634 103.162 114.478 103.52 115.204C105.332 118.794 103.925 122.188 104.379 125.681C102.542 129.33 103.472 133.332 103.592 137.197L103.592 137.218C103.687 140.076 103.788 143.09 106.024 145.869C106.859 146.889 102.262 148.338 102.93 149.397C103.908 150.986 106.93 151.754 107.097 153.461C107.193 154.364 107.574 155.364 106.358 156.169C105.833 156.522 106.263 157.483 106.215 158.17C106.191 158.7 107.741 159.308 106.286 159.739C107.312 160.995 105.046 162.27 107.097 163.565C107.169 163.604 101.167 165.534 104.547 165.534C104.762 166.947 100.517 168.149 101.852 169.699C103.164 171.249 108.17 172.982 108.123 175.101C108.075 177.573 107.455 180.085 109.029 182.615C109.482 183.341 109.697 183.871 109.053 184.518C108.576 185.009 109.601 185.598 109.816 186.108C110.03 186.637 108.933 187.599 109.22 187.756C110.531 188.521 108.91 188.678 109.005 189.129C109.053 189.306 108.054 187.756 106.702 187.918C107.847 188.977 106.749 188.697 106.319 189.678C105.307 190.287 101.313 189.479 105.086 192.082C107.828 192.592 105.62 192.739 104.547 193.308C103.808 193.7 99.9876 196.486 100.775 197.212C101.609 197.977 110.245 197.977 109.935 199.37C109.887 199.566 109.864 199.763 109.935 199.959C111.127 202.921 111.509 205.844 110.078 208.611C111.795 210.475 110.412 212.26 110.817 214.085C110.865 214.281 110.484 214.497 110.317 214.693C110.197 214.418 110.126 214.124 109.911 213.888C109.697 213.633 109.363 213.359 109.005 213.182C108.79 213.084 108.17 213.064 108.123 213.143C107.765 213.908 107.36 214.673 107.193 215.477C107.049 216.282 107.813 216.635 108.79 216.184C109.434 215.909 109.744 215.909 110.126 216.36C110.412 216.694 110.603 217.067 110.841 217.42C110.34 217.459 109.577 217.675 109.363 217.518C108.313 216.812 107.24 216.537 106.215 217.126C105.642 217.439 104.021 216.949 104.474 217.891C104.689 218.361 105.619 218.773 106.31 219.127C106.644 219.284 107.288 219.146 107.622 219.303C107.908 219.441 108.17 219.99 108.051 220.049C106.429 220.834 105.929 221.913 106.215 223.266C106.334 223.816 106 223.757 105.237 223.462C104.021 223.031 102.471 223.364 102.638 223.992C103.043 225.562 101.398 226.798 102.399 228.563C103.234 230.055 102.495 231.722 103.377 233.409C103.902 234.41 103.401 235.509 105.094 236.392C105.452 236.568 105.428 237.628 105.166 237.686L105.125 237.696C104.025 237.946 103.213 238.13 103.425 239.158C103.568 239.943 103.711 240.649 104.402 241.355C104.545 241.492 104.45 241.748 104.426 241.944C104.355 242.258 104.545 242.748 103.52 242.297C102.662 241.924 101.66 241.708 100.73 241.414C100.515 241.355 100.301 241.277 100.086 241.218C100.014 241.394 99.7759 241.591 99.8713 241.708C100.968 243.082 96.7711 242.846 98.4166 244.553C99.2751 245.436 100.515 246.79 98.2497 247.594C97.9874 247.692 98.0351 248.104 97.9874 248.379C97.7251 250.753 97.5104 251.282 95.4834 253.225C94.7679 253.892 96.0796 254.284 95.9842 254.696C95.8172 255.383 95.4357 256.148 94.6964 256.58C93.5517 257.247 95.4595 257.894 94.911 258.247C93.9094 258.875 94.5772 259.719 94.2672 260.405C94.1241 260.739 93.6471 260.974 93.4086 261.288C93.3609 261.347 94.0048 261.72 94.0525 261.7C95.5549 261.014 95.9842 262.132 96.0557 262.544C96.2942 263.623 96.2226 264.722 96.1034 265.781C96.0557 266.213 95.2449 266.585 95.3641 266.958C95.4834 267.37 96.4611 267.704 96.7473 268.135C97.0335 268.567 97.272 269.293 96.9381 269.489C96.1988 269.921 96.0796 270.411 96.1273 271C96.1988 271.922 95.7934 272.844 96.8904 273.727C94.4102 273.413 95.8172 275.159 94.6725 275.571C93.814 275.885 99.5348 276.657 98.0801 276.932C97.8177 276.971 99.3248 277.472 99.1579 277.452C98.5855 277.354 101.457 278.2 101.313 279.534C101.266 279.966 100.713 282.943 100.236 283.178C98.0655 284.218 100.873 287.185 99.7044 288.637C99.1559 289.324 104.235 300.029 94.5533 291.507C93.981 292.723 92.1234 293.355 93.7689 294.63C94.2458 295.003 91.5656 295.102 91.6133 295.671C91.8756 298.594 89.6884 296.034 91.477 298.839C91.9062 299.506 92.3593 299.506 93.0748 299.624C94.3625 299.859 95.221 300.35 95.2449 301.292C95.2687 302.704 95.7457 303.862 97.0335 304.902C97.7489 305.49 97.9397 305.726 97.1289 306.236C96.7473 306.471 96.8665 307.217 97.105 307.668C98.4882 310.297 98.5359 312.769 97.1289 315.182C96.795 315.771 97.105 316.555 97.0812 317.242C97.0573 318.282 97.3196 319.341 95.7218 320.067C95.1257 320.342 95.4595 321.441 95.5311 322.166C95.5788 322.618 96.3419 323.285 96.1034 323.481C94.7679 324.521 95.8411 325.482 96.5804 326.502C97.5343 327.817 97.4627 327.797 95.2449 328.209C94.8395 328.288 94.4579 328.621 94.3864 328.896C94.2433 329.347 94.2671 329.7 95.3641 329.994C99.2036 331.054 100.515 332.78 99.4421 335.017L99.2274 337.254C100.754 338.156 99.0844 338.862 99.3467 339.745C99.5852 340.55 99.3228 341.472 98.8936 342.217C98.3689 343.159 101.541 342.237 100.277 343.453C99.8475 343.865 100.229 344.65 99.8236 345.042C98.7028 346.102 99.0128 347.357 98.9413 348.593L98.9399 348.613C98.9164 348.963 98.8882 349.383 98.6074 349.633C97.6535 350.438 97.9158 351.105 99.0605 351.929C100.658 353.106 101.04 354.852 99.7521 356.049C99.0844 356.677 98.6313 357.01 99.7044 357.736C100.205 358.069 100.444 358.58 100.801 359.011C98.8697 359.09 100.968 360.934 98.7744 361.052C97.6774 361.11 96.1511 361.64 97.7727 362.896C97.9874 363.072 97.2481 363.955 96.318 363.465C95.2926 362.915 94.8395 363.072 94.0287 363.425C92.9794 363.877 94.4341 364.348 94.2195 364.485C93.3371 365.074 92.8601 365.917 91.4054 366.133C88.8776 366.525 87.6614 367.212 87.0652 368.978C86.7551 369.9 84.7042 368.075 85.1573 369.507C85.515 370.665 83.6549 371.489 85.0381 372.902C85.9443 373.824 85.4435 375.197 86.2305 376.198C86.779 376.884 86.9698 377.473 86.9936 378.14C87.0175 378.827 85.7297 380.161 85.6581 379.984C85.372 379.435 85.2527 378.866 85.1812 378.297C85.062 377.316 84.9189 377.453 83.4403 376.57C81.4371 375.393 78.957 375.55 76.8345 374.824C76.5245 374.707 75.9045 374.863 75.5706 375.02C74.7598 375.393 73.9251 375.786 73.3051 376.296C72.7566 376.747 70.8249 376.119 71.3734 377.335C70.3241 377.532 69.2987 377.747 68.2255 377.885C67.8678 377.924 67.2478 377.846 67.0331 377.669C66.8185 377.492 66.747 376.963 66.9139 376.904C68.8456 376.256 66.6039 375.393 66.747 374.667C66.7708 374.569 66.4131 374.412 66.2223 374.295C66.1031 374.451 65.9362 374.589 65.8646 374.765C65.2923 375.884 63.7899 376.649 62.5021 376.099C61.5482 375.687 60.5704 376.433 59.6881 375.55C59.3781 375.236 57.3749 374.981 56.3971 375.648C56.3494 375.687 55.8725 375.57 55.7771 375.472C55.3717 375.02 56.4209 374.275 55.1093 374.098C54.7278 374.039 54.4178 375.079 53.7739 375.275C53.2969 375.413 51.9853 375.119 51.6753 374.785C50.9837 374.059 47.115 374.558 46.805 373.753C43.983 375.441 42.0805 373.471 41.8659 372.902C32.3479 372.902 32.4169 371.71 31.9876 371.671C30.7952 371.534 35.9648 368.208 27.0485 373.233C21.492 373.233 22.801 372.764 22.1094 372.411C21.6324 372.176 23.3442 374.098 16.5532 372.902C7.90942 372.902 5.43986 371.136 5.43986 370.449C2.45248 369.767 0 367.702 0 367.702L0 6.14114ZM77.1446 196.741C77.2399 196.918 77.3592 197.094 77.6453 197.565C77.5023 197.585 77.1922 197.644 76.8584 197.722C76.7391 197.546 76.5245 197.349 76.5722 197.212C76.6437 197.016 76.9538 196.898 77.1446 196.741Z" fill="#FFE68E"/>
</svg>

<svg width="111" height="380" fill="none" xmlns="http://www.w3.org/2000/svg"><path d="M77.645 197.565c-.286-.471-.405-.647-.5-.824-.191.157-.501.275-.573.471-.047.137.167.334.286.51.334-.078.644-.137.787-.157z" fill="#FFE68E"/><path fill-rule="evenodd" clip-rule="evenodd" d="M0 6.141c-.31-.687-.313-1.53.904-1.707C2.43 4.2 2.716 3.257 3.765 2.786c.835-.373 1.527-.47 1.884.471.167.451.692.863.883 1.315.286.706.572.314 1.12.235 1.169-.177 2.433.392 2.576 1.118.12.589-.095 1.178.072 1.766.071.255.643.608 1.073.726 1.24.353 1.86-.216 2.528-.687-.263-.117-.477-.255-.764-.314-.5-.117-1.287-.078-.62-.647.406-.334.668-.726 1.002-1.099.453.412 1.05.785 1.335 1.236.811 1.354.764 1.334 3.602 1.53.787.06 1.716 1.237 2.289-.196.238-.608 2.862.079 4.292.903.978.55 2.218.98 3.41 1.255 1.17.256 2.457.255 3.673.334l.107.008c.803.056 1.357.095.466-.695-1.002-.863-.93-2.08-2.886-2.707-1.216-.373-1.455-1.256-.882-2.04.763-1.02 1.693-2.002 1.621-3.277-.024-.255 0-.137 1.002.098.668.157 1.574.06 2.17-.157.5-.176.692-.667 1.025-1.04.143.471.096 1.001.453 1.393.525.55 1.217 1.53 2.361 1.04 1.598-.706 2.147.51 2.1.726-.263 1.354 1.406 2.02 2.55 2.806 1.885 1.314 4.031 1 4.937-.609.191-.333.43-.647.763-.902.167-.137.787-.196.93-.118.811.51 1.527 1.099 2.314 1.629.381.255.858.431 1.287.647.382-.353 1.145-.726 1.073-1.079-.262-1.216.764-2.138.978-3.217.191-.883.835-.785 1.789-.295.596.295 1.24.55 1.908.785.286.098.81.137.954.04 1.454-.982 2.003-.766 1.86.647-.024.137.596.47.906.49.596.04 1.335-.275 1.717-.118 1.502.628.715-.353 1.05-.49.38-.157 1.215-.216 1.502-.04 2.074 1.237 2.146.373 2.17-.666 0-.157.262-.295.429-.432.167.255.31.51.477.765.43.648 1.145.726 1.717.334 1.025-.707 1.956-1.472 2.862-2.237.238-.196.143-.588.429-.726 1.12-.51 2.266-1.314 3.53-1.295 1.287.02 1.931 1.197 2.718 2.04.93 1.02 1.98 2.14 3.72 2.846 1.002.412 1.026 1 .072 1.412-.883.373-1.479.706-.191 1.471.763.452 1.169 1.138 1.74 1.727-1.454.412-.023 1.06 0 1.59 0 .293-.118.784.073.843.643.235 1.406.412 2.098.431.215 0 .62-.608.477-.843-1.216-1.982-1.74-3.806.072-5.572.739-.726 1.359-.647 1.907-.079 1.002 1.02 2.695 2.04 1.407 3.355-.143.157.406.589.358.844-.19.804.716 1.471.954 2.197.5 1.511-.81 3.022.906 4.532-.954.275-.93.864-.858 1.472.119 1.255-1.217 2.53.81 3.826.144.098-.763.706-.739 1.118.024.412.835.902.811 1.295-.19 2.57-.12 3.001 1.502 5.748.263.451.334.942.382 1.413l.004.061c.045.66.08 1.192 1.284.468.024-.02.548.236.524.314-.31 1.53.787 3.08.835 4.552.072 1.864-.334 3.767-1.145 5.493-.333.726-.262 1 .191 1.707.716 1.138-.858 2.001-1.12 3.08-.43-.157-.978-.49-1.288-.431-2.624.53-1.717 2.433-2.671 3.61 1.192.824.572 1.706.596 2.55.047 2.1-.024 4.14 1.621 6.22.573.745.287 1.745.263 2.609-.096 2.374-1.813 5.618-.263 7.854 2.195 3.14 3.983 5.565 5.7 8.704.644 1.178.477 2.63 0 3.806-.429 1.06 1.574 2.178.143 3.08 1.765 1.197.644 2.453.835 3.689.071.51-.62.981-.644 1.51l-.005.053c-.071.713-3.816 4.554-3.327 5.186 1.002 1.295 3.189.208 2.998 1.561-.095.668 1.932.578 2.838 1.225 1.025.745-2.051.863-.525 1.962.907.667-.31 1.275-.477 1.883-.214.707 1.86 1.315.287 2.001-.454.197-.311 1.433.214 1.904 1.049.941.739 1.844.453 2.55-.286.706-.286 1.197.072 1.923.31.647.071 1.373.071 2.06 0 .784-.31 1.628.048 2.354 1.812 3.59.405 6.984.859 10.477-1.837 3.649-.907 7.651-.787 11.516v.021c.095 2.858.196 5.872 2.432 8.651.835 1.02-3.762 2.469-3.094 3.528.978 1.589 4 2.357 4.167 4.064.096.903.477 1.903-.739 2.708-.525.353-.095 1.314-.143 2.001-.024.53 1.526 1.138.071 1.569 1.026 1.256-1.24 2.531.811 3.826.072.039-5.93 1.969-2.55 1.969.215 1.413-4.03 2.615-2.695 4.165 1.312 1.55 6.318 3.283 6.271 5.402-.048 2.472-.668 4.984.906 7.514.453.726.668 1.256.024 1.903-.477.491.548 1.08.763 1.59.214.529-.883 1.491-.596 1.648 1.311.765-.31.922-.215 1.373.048.177-.951-1.373-2.303-1.211 1.145 1.059.047.779-.383 1.76-1.012.609-5.006-.199-1.233 2.404 2.742.51.534.657-.539 1.226-.739.392-4.56 3.178-3.772 3.904.834.765 9.47.765 9.16 2.158-.048.196-.071.393 0 .589 1.192 2.962 1.574 5.885.143 8.652 1.717 1.864.334 3.649.739 5.474.048.196-.333.412-.5.608-.12-.275-.191-.569-.406-.805a2.954 2.954 0 00-.906-.706c-.215-.098-.835-.118-.882-.039-.358.765-.763 1.53-.93 2.334-.144.805.62 1.158 1.597.707.644-.275.954-.275 1.336.176.286.334.477.707.715 1.06-.501.039-1.264.255-1.478.098-1.05-.706-2.123-.981-3.148-.392-.573.313-2.194-.177-1.741.765.215.47 1.145.882 1.836 1.236.334.157.978.019 1.312.176.286.138.548.687.429.746-1.622.785-2.122 1.864-1.836 3.217.119.55-.215.491-.978.196-1.216-.431-2.766-.098-2.599.53.405 1.57-1.24 2.806-.239 4.571.835 1.492.096 3.159.978 4.846.525 1.001.024 2.1 1.717 2.983.358.176.334 1.236.072 1.294l-.041.01c-1.1.25-1.912.434-1.7 1.462.143.785.286 1.491.977 2.197.143.137.048.393.024.589-.071.314.119.804-.906.353-.858-.373-1.86-.589-2.79-.883-.215-.059-.429-.137-.644-.196-.072.176-.31.373-.215.49 1.097 1.374-3.1 1.138-1.454 2.845.858.883 2.098 2.237-.167 3.041-.263.098-.215.51-.263.785-.262 2.374-.477 2.903-2.504 4.846-.715.667.597 1.059.501 1.471-.167.687-.548 1.452-1.288 1.884-1.144.667.764 1.314.215 1.667-1.002.628-.334 1.472-.644 2.158-.143.334-.62.569-.858.883-.048.059.596.432.643.412 1.503-.686 1.932.432 2.004.844.238 1.079.167 2.178.047 3.237-.047.432-.858.804-.739 1.177.12.412 1.097.746 1.383 1.177.287.432.525 1.158.191 1.354-.74.432-.858.922-.81 1.511.07.922-.335 1.844.762 2.727-2.48-.314-1.073 1.432-2.218 1.844-.858.314 4.863 1.086 3.408 1.361-.262.039 1.245.54 1.078.52-.573-.098 2.299.748 2.155 2.082-.047.432-.6 3.409-1.077 3.644-2.17 1.04.637 4.007-.532 5.459-.548.687 4.531 11.392-5.15 2.87-.573 1.216-2.43 1.848-.785 3.123.477.373-2.203.472-2.156 1.041.263 2.923-1.925.363-.136 3.168.43.667.882.667 1.598.785 1.287.235 2.146.726 2.17 1.668.024 1.412.5 2.57 1.788 3.61.716.588.907.824.096 1.334-.382.235-.263.981-.024 1.432 1.383 2.629 1.43 5.101.024 7.514-.334.589-.024 1.373-.048 2.06-.024 1.04.239 2.099-1.36 2.825-.595.275-.261 1.374-.19 2.099.048.452.81 1.119.572 1.315-1.335 1.04-.262 2.001.477 3.021.954 1.315.883 1.295-1.335 1.707-.406.079-.787.412-.859.687-.143.451-.119.804.978 1.098 3.84 1.06 5.151 2.786 4.078 5.023l-.215 2.237c1.527.902-.143 1.608.12 2.491.238.805-.024 1.727-.453 2.472-.525.942 2.647.02 1.383 1.236-.43.412-.048 1.197-.453 1.589-1.121 1.06-.811 2.315-.883 3.551l-.001.02c-.024.35-.052.77-.333 1.02-.954.805-.691 1.472.454 2.296 1.597 1.177 1.979 2.923.691 4.12-.668.628-1.12.961-.048 1.687.501.333.74.844 1.097 1.275-1.931.079.167 1.923-2.027 2.041-1.097.058-2.623.588-1.001 1.844.214.176-.525 1.059-1.455.569-1.025-.55-1.478-.393-2.29-.04-1.049.452.406.923.191 1.06-.882.589-1.359 1.432-2.814 1.648-2.527.392-3.744 1.079-4.34 2.845-.31.922-2.36-.903-1.908.529.358 1.158-1.502 1.982-.119 3.395.906.922.406 2.295 1.193 3.296.548.686.739 1.275.763 1.942.023.687-1.264 2.021-1.336 1.844-.286-.549-.405-1.118-.477-1.687-.119-.981-.262-.844-1.74-1.727-2.004-1.177-4.484-1.02-6.606-1.746-.31-.117-.93.039-1.264.196-.811.373-1.646.766-2.266 1.276-.548.451-2.48-.177-1.932 1.039-1.049.197-2.074.412-3.148.55-.357.039-.977-.039-1.192-.216-.215-.177-.286-.706-.12-.765 1.933-.648-.31-1.511-.166-2.237.024-.098-.334-.255-.525-.372-.119.156-.286.294-.357.47-.573 1.119-2.075 1.884-3.363 1.334-.954-.412-1.932.334-2.814-.549-.31-.314-2.313-.569-3.29.098-.049.039-.526-.078-.62-.176-.406-.452.643-1.197-.669-1.374-.381-.059-.691.981-1.335 1.177-.477.138-1.789-.156-2.099-.49-.691-.726-4.56-.227-4.87-1.032-2.822 1.688-4.724-.282-4.94-.851-9.517 0-9.448-1.192-9.877-1.231-1.193-.137 3.977-3.463-4.94 1.562-5.556 0-4.247-.469-4.939-.822-.477-.235 1.235 1.687-5.556.491-8.644 0-11.113-1.766-11.113-2.453-2.988-.682-5.44-2.747-5.44-2.747V6.142zm77.145 190.6c.095.177.214.353.5.824-.143.02-.453.079-.787.157-.119-.176-.334-.373-.286-.51.072-.196.382-.314.573-.471z" fill="#FFE68E"/></svg>
